X: 1
T: Green Hills Of Tyrol, The
M: 6/8
L: 1/8
R: jig
K: Gmaj
A|:BGG BGc|BGD B,CD|~B,3  ~E3|FEF G2 A|
~B3 Bcd|BcA BGD|B,G,B, EDE|1 FEF G2 A:|2FEF G2 a||
|:bag egd|cdB ABG|FGE DEC|B,CA, G,2 D|
G2 B dBG|BcA BGD|B,G,B, EDE|1 FEF G2 a:|2 FEF G2 A||
